src/main/resources/icons/traffic-high.svg

<?xml version="1.0" encoding="UTF-8" standalone="no"?>
<!-- Created with Inkscape (http://www.inkscape.org/) -->

<svg
        width="4.7624998mm"
        height="3.6064999mm"
        viewBox="0 0 4.7624998 3.6064999"
        version="1.1"
        id="svg5"
        xml:space="preserve"
        xmlns="http://www.w3.org/2000/svg"
><defs
     id="defs2" /><path
     id="path1699"
     style="display:inline;fill:#ed4646;fill-opacity:1;stroke-width:0.571737;stroke-linecap:round;stroke-linejoin:round"
     d="M 2.38125,0 A 2.3812459,2.3812459 0 0 0 0,2.38125 2.3812459,2.3812459 0 0 0 0.33848,3.6034 L 0.79065,3.329 A 1.8520975,1.8520975 0 0 1 0.52917,2.38125 1.8520975,1.8520975 0 0 1 2.38125,0.52917 1.8520975,1.8520975 0 0 1 3.48816,0.89814 L 4.06849,0.70177 A 2.3812459,2.3812459 0 0 0 2.38125,0 Z m 2.30581,1.0666 c 0,0 -2.32679,0.73226 -2.55592,0.86455 C 1.902,2.06344 1.81263,2.43807 1.93735,2.6541 2.06208,2.87013 2.43117,2.98019 2.66031,2.84789 2.88945,2.7156 4.68706,1.0666 4.68706,1.0666 Z M 4.66996,1.73064 4.21521,2.1301 A 1.8520975,1.8520975 0 0 1 4.23331,2.38125 1.8520975,1.8520975 0 0 1 3.96924,3.33416 L 4.42296,3.6065 A 2.3812459,2.3812459 0 0 0 4.76247,2.38125 2.3812459,2.3812459 0 0 0 4.66997,1.73064 Z" /></svg>

<svg xmlns="http://www.w3.org/2000/svg" xml:space="preserve" viewBox="0 0 4.762 3.606"><path d="M2.381 0A2.381 2.381 0 0 0 0 2.381a2.381 2.381 0 0 0 .338 1.222l.453-.274a1.852 1.852 0 0 1-.262-.948A1.852 1.852 0 0 1 2.381.53 1.852 1.852 0 0 1 3.488.9l.58-.197A2.381 2.381 0 0 0 2.381 0Zm2.306 1.067s-2.327.732-2.556.864c-.229.132-.318.507-.194.723.125.216.494.326.723.194.23-.132 2.027-1.781 2.027-1.781Zm-.017.664-.455.4a1.852 1.852 0 0 1 .018.25 1.852 1.852 0 0 1-.264.953l.454.272a2.381 2.381 0 0 0 .34-1.225 2.381 2.381 0 0 0-.093-.65Z" style="display:inline;fill:#ed4646;fill-opacity:1;stroke-width:.571737;stroke-linecap:round;stroke-linejoin:round"/></svg>
